X: 1
T: Cocktail, The
M: 4/4
L: 1/8
R: reel
K: Dmaj
|: DFFE D2 fe | dF F2 AFEF | DFFE D2 ed | cAAG EFGE :|
| A2 A2 eA A2 | eA A2 BG G2 | A2 A2 eA AB | =c2 AG EFGE |
A2 A2 eA A2 | eA A2 BF G2 | A2 A2 abag | fgef dBAF |
